public/vscode-icons/blitzbasic.svg

<svg xmlns="http://www.w3.org/2000/svg" viewBox="0 0 32 32"><path d="M4 9v3h1v7H4v3h10v-1h1v-1h1v-4h-1v-1h1v-4h-1v-1h-1V9zm6 3h2v2h-2zm0 5h2v2h-2z" style="fill:#00ffae"/><path d="M16 9v3h1v7h-1v3h10v-1h1v-1h1v-4h-1v-1h1v-4h-1v-1h-1V9zm5 3h2v2h-2zm0 5h2v2h-2z" style="fill:#00d8ff"/></svg>

<svg xmlns="http://www.w3.org/2000/svg" viewBox="0 0 32 32"><title>file_type_blitzbasic</title><path d="M4,9v3H5v7H4v3H14V21h1V20h1V16H15V15h1V11H15V10H14V9H4Zm6,3h2v2H10V12Zm0,5h2v2H10V17Z" style="fill:#00ffae"/><path d="M16,9v3h1v7H16v3H26V21h1V20h1V16H27V15h1V11H27V10H26V9H16Zm5,3h2v2H21V12Zm0,5h2v2H21V17Z" style="fill:#00d8ff"/></svg>
